!!!!SEGMENT: pl-wtm--r-232-m_moniuszko-stanislaw--nabozenstwo.krn
!!!cenid: 18xx:1638
!!!COM: Moniuszko, Stanisław
!!!COM-rismid: pe30008351
!!!CDT: 1819/05/05-1872/06/04
!!!CNT: Polish
!!!OTL: Nabożeństwo
!!!PDT:
!!!AGN: Secular
!!!SMS-siglum: PL-Wtm
!!!SMS-shelfmark: R 232/M
!!!SMS-shelfwork: W
!!!SMS-variant:
!!!SMS-altvar:
!!!NIFC-rismid: 1001063766
!!!URL-scan: http://repozytorium.nifc.pl/skany/pl-wtm-nut--r229m
!!!ONB-nifc:
!!!OMD: Allegro, non troppo presto.
**kern	**kern	**fing	**dynam	**kern	**text	**text
*part2	*part2	*	*part2	*part1	*part1	*part1
*staff3	*staff2	*	*	*staff1	*staff1	*staff1
*clefF4	*clefG2	*	*	*clefG2	*	*
*k[f#c#]	*k[f#c#]	*	*	*k[f#c#]	*	*
*D:	*D:	*	*	*D:	*	*
*M6/8	*M6/8	*	*	*M6/8	*	*
*>[A,B,B]	*>[A,B,B]	*	*	*>[A,B,B]	*	*
=1	=1	=1	=1	=1	=1	=1
*>A	*>A	*	*	*>A	*	*
!	!	!	!	!LO:TX:a:t=N=o 7. Nabożeństwo. K. Brodzińskiego.	!	!
!	!LO:TX:t=P:problem:kolejność znaków f# cc#	!	!LO:DY:rj:t=f.	!LO:TX:t=P:problem:kolejność znaków f# cc#	!	!
2.r	8.ddL 8.f#/	.	f	2.r	.	.
.	16aK 16f#/	.	.	.	.	.
.	8f#J 8d/	.	.	.	.	.
.	(8aL 8f#/	3 5	.	.	.	.
.	8g 8e/)	.	.	.	.	.
.	8eJ 8A'/	.	.	.	.	.
=2	=2	=2	=2	=2	=2	=2
*	*^	*	*	*	*	*
!	!	!LO:TX:t=P:problemLmixed beam	!	!	!	!	!
4rGG	8a/L	8f#\L	.	.	2.r	.	.
.	8f#/	16d\L	2 4	.	.	.	.
.	.	16A<|/JJ	.	.	.	.	.
8rGG	8A<J 8F#</	8ryy	2 4	.	.	.	.
4rGG	4B< 4G#X</	4ryy	.	.	.	.	.
8AA\	8c#< 8A< 8E</	8ryy	.	.	.	.	.
*	*v	*v	*	*	*	*	*
=3!|:	=3!|:	=3!|:	=3!|:	=3!|:	=3!|:	=3!|:
*>B	*>B	*	*	*>B	*	*
*2\right	*	*	*	*	*	*
2.D 2.DD\	4.d< 4.A< 4.F#<^>/	.	.	8d/	Z po-	Ga-
.	.	.	.	8f#/	-la ,	-łę-
.	.	.	.	8a/	z o-	-zie
.	4.f# 4.d 4.A<^/	.	.	4dd\	-bo-	li-
.	.	.	.	8cc#\	-ry	-py
!!LO:LB:g=original
=4	=4	=4	=4	=4	=4	=4
2.GG\	4.e 4.d 4.B^/	.	.	8b\	spę-	tnij-
.	.	.	.	8a#X\	-dzaj-	-cie
.	.	.	.	8b\	-cie	mło-
.	4.b 4.e 4.d^/	.	.	4e/	trzo-	-dzień-
.	.	.	.	8e/	-dy,	-ce,
=5	=5	=5	=5	=5	=5	=5
2.AA\	4.a 4.e 4.c#^/	.	.	8e/	za-	wy
.	.	.	.	8f#/	-wieś-	dzie-
.	.	.	.	8g/	-cie	-ci!
.	4e 4A^/	.	.	8.a/	Ko-	spiesz-
.	.	.	.	16b/	-zy	-cie
.	8g 8e 8A/	.	.	8a/	na	na
=6	=6	=6	=6	=6	=6	=6
!	!	!	!LO:DY:t=f.	!	!	!
4.D 4.DD\	8.ddL 8.f#/	.	f	[4.a/	ścia-	kwia-
.	16aK 16e/	.	.	.	.	.
.	8f#J 8d/	.	.	.	.	.
4AA\	8eL 8A</	.	.	4a/]	.	.
.	8d 8F#</	.	.	.	.	.
8AA 8AAA\	8A<J 8E</	.	.	8a/	-nie,	-ty,
!!LO:LB:g=original
=7	=7	=7	=7	=7	=7	=7
2.DD/	4.d< 4.A< 4.F#<^/	.	.	8d/	mły-	cór-
.	.	.	.	8f#/	-na-	-ki
.	.	.	.	8a/	-rze	w kwie-
.	4.f# 4.d 4.A^/	.	.	4dd\	dzi-	-tni-
.	.	.	.	8cc#\	-siaj	-kach
=8	=8	=8	=8	=8	=8	=8
4.GG/	4.e 4.d 4.B^/	.	.	8b/	za-	spla-
.	.	.	.	8a#X/	-staw-	-taj-
.	.	.	.	8b/	-cie	-cie
(4.GG#X/	(4.b 4.e#X (4.d^/	.	.	4dd\	wo-	wień-
.	.	.	.	8dd\	-dy,	-ce,
=9	=9	=9	=9	=9	=9	=9
8AA/)	8a 8f#/))	.	.	8.dd\	niech	przyw-
8r	8r	.	.	.	.	.
.	.	.	.	16a/	w po-	-dziej-
8r	8r	.	.	8f#/	-lu	-cie
(4.AA (4.AAA/	([4.a 4.g 4.e 4.c# 4.A^/	.	.	8a/	pra-	świą-
.	.	.	.	8g/	-ca	-te-
.	.	.	.	8e/	u-	-czne
=10	=10	=10	=10	=10	=10	=10
!	!	!	!LO:DY:rj:t=p.	!	!	!
[<4.D [4.DD\))	8.a]L 8.f#/)	.	p	4d/	-sta-	sza-
.	16f#K 16d/	.	.	.	.	.
.	8eJ 8A/	.	.	8d/	-nie	-ty.
8D] 8DD\]	(<8d<L 8F#</	.	.	4r	.	.
8ryy	8A< 8E</)	.	.	.	.	.
8ryy	8F#<J 8D</	.	.	8r	.	.
!!LO:LB:g=original
=11	=11	=11	=11	=11	=11	=11
!	!	!	!LO:DY:t=pp.	!	!	!
[<2.AA [2.AAA\	(4.A< 4.E< 4.C#</	.	pp	8e/	Mó-	U-
.	.	.	.	8e/	-wil	-strój-
.	.	.	.	8e/	już	-my
.	4.c#< 4.A< 4.E</	.	.	4a/	Ple-	wro-
.	.	.	.	8a/	-ban	-ta
=12	=12	=12	=12	=12	=12	=12
*	*^	*	*	*	*	*
2.AA_< 2.AAA\_	4.e 4.B< 4.G#X</	4.rGGyy	.	.	8b/	że	zło-
.	.	.	.	.	8g#X/	się	-cis-
.	.	.	.	.	8b/	za-	-te
.	4g#X/	4.e 4.B\	.	.	4ee\	-czy-	ścia-
.	8b/	.	.	.	8dd\	-na	-ny,
*	*v	*v	*	*	*	*	*
=13	=13	=13	=13	=13	=13	=13
!LO:TX:a:t=P:problem:ligatura trwa dalej	!	!	!	!	!	!
2.AA] 2.AAA\]	4.a 4.e 4.c#/	.	.	8.cc#\	woj-	ja-
.	.	.	.	16b\	-na	-rzę-
.	.	.	.	8a\	co	-ce
!	!LO:TX:a:t=P:problem:łuk trwa dalej	!	!	!	!	!
.	4.b 4.g#X 4.e/)	.	.	8b\	zie-	za-
.	.	.	.	8g#X/	-mię	-pal-
!LO:TX:b:t=Dar p. Jadwigi z Moniuszków Skolińskiej\n20 IV 1901\nwł Zakrzewskiej	!	!	!	!	!	!
!LO:TX:t=P:problem:utwór urywa się po t. 13	!LO:TX:t=P:problem:utwór urywa się po t. 13	!	!	!LO:TX:t=P:problem:utwór urywa się po t. 13	!	!
.	.	.	.	8e/	krwią	-my
==	==	==	==	==	==	==
*-	*-	*-	*-	*-	*-	*-
!!!system-decoration: {s1(s2,s3)}
!!!RDF**kern: > = above
!!!RDF**kern: < = below
!!!RDF**kern: | = vertical stroke
!!!ENC: Marta Lawrence
!!!END: 2021-04-15
!!!ENC: Marcin Jachim
!!!END: 2021-03-28
